X:1
T:Are You Working?
T:Are You Working?
T:Walter Elmore Edmiaston (1877-1982)
T:Ella Allen Edmiaston (1878-1955)
T:Public Domain Courtesy of the Cyber Hymnal™
C:Walter Elmore Edmiaston (1877-1982)
Z:Public Domain
Z:Courtesy of the Cyber Hymnal™
%%score 1 ( 2 3 )
L:1/8
Q:1/4=110
M:4/4
K:F
V:1 treble 
V:2 bass 
V:3 bass 
V:1
 [CF][CG] | [FA]2 [F^G]2 [FA]2 [FB]2 | [FA]4 [CF]2 [CF][FA] | [EG]2 [EG]2 [DF]2 [EG]2 | %4
w: 1.~Are you|work- ing for the|Mas- ter, Are you|toil- ing day by|
w: 2.~Hear you|not the Mas- ter|call- ing, For glad|toil- ers brave and|
w: 3.~There’s a|work for all, my|bro- ther, Sheaves are|fall- ing by the|
 [FA]6 [FA][FB] | [Fc]2 [Fd]2 [Fc]2 [FB]2 | [FA]4 [CF]2 [CF][FA] | [DG]2 [DG]2 [CF]2 [CE]2 | %8
w: day? Are you|sow- ing seeds of|kind- ness, For the|reap- ers on the|
w: true? Will you|en- ter now the|har- vest, For the|call is un- to|
w: way, Go you|forth in- to the|har- vest, En- ter|now, with- out de-|
 [CF]6 |] %9
w: way?|
w: you?|
w: lay.|
V:2
 [F,A,][F,B,] | [F,C]2 [F,=B,]2 [F,C]2 [F,D]2 | [F,C]4 [F,A,]2 [F,A,][F,C] | %3
 [C,C]2 [C,B,]2 [D,A,]2 [C,C]2 | [F,C]6 F,[F,G,] | [F,A,]2 [F,B,]2 [F,A,]2 [F,D]2 | %6
 [F,C]4 [F,A,]2 [F,A,][F,C] | [B,,B,]2 [B,,B,]2 [C,A,]2 [C,G,]2 | [F,A,]6 |] %9
V:3
 x2 | x8 | x8 | x8 | x6 F, x | x8 | x8 | x8 | x6 |] %9

